X:1
T: Jack's Favourite reel
N:23 February 1997
C: flirtation on Jack's Maggot by Bruce Shawyer
S:
A:
O:
R:
M:4/4
K:D
I:speed 212
%W:    A
% voice 1 (1 lines, 32 notes)
K:D
M:4/4
L:1/16
d2 D2 F2 A2 d2 D2 F2 A2 |B2 A2 B2 c2 d2 c2 d2 e2 |f2 g2 a2 f2 B2 c2 d2 B2 |e2 d2 e2 f2 e2 c2 A2 c2 |
%W:
% voice 1 (1 lines, 28 notes)
d2 D2 F2 A2 d2 D2 F2 A2 |B2 c2 d2 e2 c2 A2 a2 g2 |f2 e2 d2 f2 e2 d2 c2 e2 |d8 d4 f2 g2 |
%W:    B
% voice 1 (1 lines, 31 notes)
a2 g2 f2 g2 a2 g2 f2 a2 |f2 e2 d2 e2 f2 d2 e2 f2 |g2 f2 e2 d2 e2 d2 c2 d2 |e2 d2 c2 B2 A4 f2 g2 |
%W:
% voice 1 (1 lines, 26 notes)
a2 g2 f2 e2 d2 e2 f2 d2 |A2 d2 F2 A2 D2 F2 A2 d2 |B2 c2 d2 B2 c2 d2 e2 c2 |d8 d4 ||
